images/ic_token_iknc.svg

<svg height="250" viewBox="0 0 250 250" width="250" xmlns="http://www.w3.org/2000/svg"><path d="m212.996094 214.070312c-11.644532 11.648438-25.507813 20.828126-40.769532 26.996094-15.257812 6.167969-31.601562 9.199219-48.054687 8.910156-16.347656.320313-32.589844-2.699218-47.738281-8.878906-15.144532-6.175781-28.871094-15.382812-40.34375-27.058594-11.746094-11.453124-21.007813-25.207031-27.210938-40.402343-6.203125-15.199219-9.214844-31.511719-8.847656-47.925781 0-35.917969 12.039062-65.84375 36.117188-89.78125 11.480468-11.667969 25.21875-20.871094 40.367187-27.046876 15.148437-6.171874 31.398437-9.1875 47.75-8.8593745 16.449219-.2773435 32.789063 2.7578125 48.042969 8.9335935 15.253906 6.171875 29.109375 15.355469 40.75 27.003907 24.613281 23.957031 36.921875 53.894531 36.921875 89.808593.308593 16.488281-2.820313 32.855469-9.1875 48.0625-6.367188 15.203125-15.835938 28.910157-27.796875 40.238281zm0 0" fill="#49bc98"/><g fill="#fff"><path d="m167.859375 79.949219-35.746094-26.378907-1.804687.140626c-.855469 1.074218-1.550782 2.269531-2.054688 3.546874-3.160156 13.617188-6.253906 27.265626-9.34375 40.910157v.007812l-.007812.03125c-.847656 3.746094-1.695313 7.496094-2.546875 11.242188-.285157 1.292969-.554688 2.601562-.859375 4.085937l-.269532 1.316406c.414063-.210937.765626-.382812 1.082032-.535156.4375-.214844.800781-.394531 1.148437-.589844l38.421875-21.167968c4.257813-2.308594 8.484375-4.617188 12.714844-6.980469.425781-.21875.785156-.542969 1.050781-.941406.265625-.394531.425781-.851563.464844-1.328125.039063-.476563-.042969-.953125-.238281-1.390625-.195313-.433594-.5-.8125-.882813-1.097657zm0 0"/><path d="m80.1875 82.929688c-2.273438 1.542968-4.046875 3.714843-5.101562 6.25l-.085938 72.878906c1.003906 1.84375 2.238281 3.554687 3.664062 5.09375 8.058594 6.625 16.207032 13.167968 24.34375 19.707031l.007813.003906c2.824219 2.269531 5.644531 4.535157 8.464844 6.804688 1.070312.875 2.226562 1.523437 3.578125.675781.570312-.386719.996094-.957031 1.203125-1.617188.210937-.65625.191406-1.367187-.046875-2.011718-4.265625-20.851563-8.484375-41.71875-12.65625-62.605469-.324219-1.605469-.324219-3.261719 0-4.867187 4.226562-20.8125 8.503906-41.605469 12.824218-62.378907.3125-1.519531.28125-2.929687-1.183593-3.773437-1.464844-.84375-2.621094-.027344-3.71875.875-2.9375 2.34375-5.867188 4.6875-8.800781 7.035156-7.488282 5.992188-14.976563 11.984375-22.492188 17.929688zm0 0"/><path d="m130.058594 196.429688c-.839844-1.023438-1.523438-2.160157-2.03125-3.378907-3.296875-14.503906-6.519532-29.046875-9.742188-43.578125-.886718-3.996094-1.773437-7.992187-2.664062-11.988281 0-.410156-.085938-.824219-.195313-1.332031-.054687-.257813-.113281-.542969-.167969-.863282.265626.128907.503907.242188.722657.34375.503906.238282.90625.425782 1.277343.640626l50.574219 27.953124c3.128907 1.746094 3.242188 3.632813.28125 5.628907l-36 26.179687-.253906.253906zm0 0"/><path d="m124.109375 120.058594-7.300781 4.140625 1.886718 1.152343 33.378907 18.777344 18.238281 10.46875c1.75.988282 3.355469.816406 4.117188-.503906.417968-.878906.613281-1.847656.5625-2.816406v-53.484375c0-3.882813-1.859376-4.953125-5.242188-3.066407zm0 0"/></g></svg>

<svg xmlns="http://www.w3.org/2000/svg" xmlns:xlink="http://www.w3.org/1999/xlink" width="250px" height="250px" viewBox="0 0 250 250" version="1.1">
<g id="surface1">
<path style=" stroke:none;fill-rule:nonzero;fill:rgb(28.627452%,73.725492%,59.607846%);fill-opacity:1;" d="M 212.996094 214.070312 C 201.351562 225.71875 187.488281 234.898438 172.226562 241.066406 C 156.96875 247.234375 140.625 250.265625 124.171875 249.976562 C 107.824219 250.296875 91.582031 247.277344 76.433594 241.097656 C 61.289062 234.921875 47.5625 225.714844 36.089844 214.039062 C 24.34375 202.585938 15.082031 188.832031 8.878906 173.636719 C 2.675781 158.4375 -0.335938 142.125 0.03125 125.710938 C 0.03125 89.792969 12.070312 59.867188 36.148438 35.929688 C 47.628906 24.261719 61.367188 15.058594 76.515625 8.882812 C 91.664062 2.710938 107.914062 -0.304688 124.265625 0.0234375 C 140.714844 -0.253906 157.054688 2.78125 172.308594 8.957031 C 187.5625 15.128906 201.417969 24.3125 213.058594 35.960938 C 237.671875 59.917969 249.980469 89.855469 249.980469 125.769531 C 250.289062 142.257812 247.160156 158.625 240.792969 173.832031 C 234.425781 189.035156 224.957031 202.742188 212.996094 214.070312 Z M 212.996094 214.070312 "/>
<path style=" stroke:none;fill-rule:nonzero;fill:rgb(100%,100%,100%);fill-opacity:1;" d="M 167.859375 79.949219 L 132.113281 53.570312 L 130.308594 53.710938 C 129.453125 54.785156 128.757812 55.980469 128.253906 57.257812 C 125.09375 70.875 122 84.523438 118.910156 98.167969 L 118.910156 98.175781 L 118.902344 98.207031 C 118.054688 101.953125 117.207031 105.703125 116.355469 109.449219 C 116.070312 110.742188 115.800781 112.050781 115.496094 113.535156 L 115.226562 114.851562 C 115.640625 114.640625 115.992188 114.46875 116.308594 114.316406 C 116.746094 114.101562 117.109375 113.921875 117.457031 113.726562 L 155.878906 92.558594 C 160.136719 90.25 164.363281 87.941406 168.59375 85.578125 C 169.019531 85.359375 169.378906 85.035156 169.644531 84.636719 C 169.910156 84.242188 170.070312 83.785156 170.109375 83.308594 C 170.148438 82.832031 170.066406 82.355469 169.871094 81.917969 C 169.675781 81.484375 169.371094 81.105469 168.988281 80.820312 Z M 167.859375 79.949219 "/>
<path style=" stroke:none;fill-rule:nonzero;fill:rgb(100%,100%,100%);fill-opacity:1;" d="M 80.1875 82.929688 C 77.914062 84.472656 76.140625 86.644531 75.085938 89.179688 L 75 162.058594 C 76.003906 163.902344 77.238281 165.613281 78.664062 167.152344 C 86.722656 173.777344 94.871094 180.320312 103.007812 186.859375 L 103.015625 186.863281 C 105.839844 189.132812 108.660156 191.398438 111.480469 193.667969 C 112.550781 194.542969 113.707031 195.191406 115.058594 194.34375 C 115.628906 193.957031 116.054688 193.386719 116.261719 192.726562 C 116.472656 192.070312 116.453125 191.359375 116.214844 190.714844 C 111.949219 169.863281 107.730469 148.996094 103.558594 128.109375 C 103.234375 126.503906 103.234375 124.847656 103.558594 123.242188 C 107.785156 102.429688 112.0625 81.636719 116.382812 60.863281 C 116.695312 59.34375 116.664062 57.933594 115.199219 57.089844 C 113.734375 56.246094 112.578125 57.0625 111.480469 57.964844 C 108.542969 60.308594 105.613281 62.652344 102.679688 65 C 95.191406 70.992188 87.703125 76.984375 80.1875 82.929688 Z M 80.1875 82.929688 "/>
<path style=" stroke:none;fill-rule:nonzero;fill:rgb(100%,100%,100%);fill-opacity:1;" d="M 130.058594 196.429688 C 129.21875 195.40625 128.535156 194.269531 128.027344 193.050781 C 124.730469 178.546875 121.507812 164.003906 118.285156 149.472656 C 117.398438 145.476562 116.511719 141.480469 115.621094 137.484375 C 115.621094 137.074219 115.535156 136.660156 115.425781 136.152344 C 115.371094 135.894531 115.3125 135.609375 115.257812 135.289062 C 115.523438 135.417969 115.761719 135.53125 115.980469 135.632812 C 116.484375 135.871094 116.886719 136.058594 117.257812 136.273438 L 167.832031 164.226562 C 170.960938 165.972656 171.074219 167.859375 168.113281 169.855469 L 132.113281 196.035156 L 131.859375 196.289062 Z M 130.058594 196.429688 "/>
<path style=" stroke:none;fill-rule:nonzero;fill:rgb(100%,100%,100%);fill-opacity:1;" d="M 124.109375 120.058594 L 116.808594 124.199219 L 118.695312 125.351562 L 152.074219 144.128906 L 170.3125 154.597656 C 172.0625 155.585938 173.667969 155.414062 174.429688 154.09375 C 174.847656 153.214844 175.042969 152.246094 174.992188 151.277344 L 174.992188 97.792969 C 174.992188 93.910156 173.132812 92.839844 169.75 94.726562 Z M 124.109375 120.058594 "/>
</g>
</svg>
